X: 40392
T: Tom Keane's
R: reel
M: 4/4
K: Gmajor
|:FDDE FGAG|FDDB, C2 DE|FDDE FGAG|FDEF D4:|
|:Addc AGFG|FGAB c3 B|Addc ABAG|FDEF D4:|

